src/actions/16/im-invisible-user.svg

<svg xmlns="http://www.w3.org/2000/svg" viewBox="0 0 16 16">
    <path d="M8 2a3 3 0 0 0-3 3 3 3 0 0 0 3 3 3 3 0 0 0 3-3 3 3 0 0 0-3-3zm1.293 1 .707.707L6.707 7 6 6.293 9.293 3zM8 9a5 4.5 0 0 0-5 4.5 5 4.5 0 0 0 .033.5h9.93a5 4.5 0 0 0 .037-.5A5 4.5 0 0 0 8 9zm0 1a4 3.5 0 0 1 3.955 3h-7.91A4 3.5 0 0 1 8 10z" style="fill:currentColor;fill-opacity:1;stroke:none;color:#050505;opacity:.7"/>
    <path d="m9.3 3 .707.707L6.714 7l-.707-.707Z" style="fill:#000"/>
</svg>

<?xml version="1.0" encoding="UTF-8" standalone="no"?>
<svg
   viewBox="0 0 16 16"
   version="1.1"
   id="svg267"
   sodipodi:docname="im-invisible-user.svg"
   inkscape:version="1.2.2 (b0a8486541, 2022-12-01)"
   xmlns:inkscape="http://www.inkscape.org/namespaces/inkscape"
   xmlns:sodipodi="http://sodipodi.sourceforge.net/DTD/sodipodi-0.dtd"
   xmlns="http://www.w3.org/2000/svg"
   xmlns:svg="http://www.w3.org/2000/svg">
  <sodipodi:namedview
     id="namedview269"
     pagecolor="#ffffff"
     bordercolor="#000000"
     borderopacity="0.25"
     inkscape:showpageshadow="2"
     inkscape:pageopacity="0.0"
     inkscape:pagecheckerboard="0"
     inkscape:deskcolor="#d1d1d1"
     showgrid="false"
     inkscape:zoom="51.3125"
     inkscape:cx="5.7295981"
     inkscape:cy="8.0194884"
     inkscape:window-width="1920"
     inkscape:window-height="1021"
     inkscape:window-x="0"
     inkscape:window-y="0"
     inkscape:window-maximized="1"
     inkscape:current-layer="svg267" />
  <defs
     id="defs3051">
    <inkscape:path-effect
       effect="powerclip"
       id="path-effect801"
       is_visible="true"
       lpeversion="1"
       inverse="true"
       flatten="false"
       hide_clip="false"
       message="Use fill-rule evenodd on &lt;b&gt;fill and stroke&lt;/b&gt; dialog if no flatten result after convert clip to paths." />
    <style
       type="text/css"
       id="current-color-scheme">
      .ColorScheme-Text {
        color:#363636;
      }
      </style>
    <clipPath
       clipPathUnits="userSpaceOnUse"
       id="clipPath797">
      <path
         style="display:none;fill:#ffffff"
         d="M 9.3,3 10.007,3.707 6.714,7 6.007,6.293 Z"
         id="path799" />
      <path
         id="lpe_path-effect801"
         style="fill:#ffffff"
         class="powerclip"
         d="M -2,-3 H 18 V 19 H -2 Z M 9.3,3 6.007,6.293 6.714,7 10.007,3.707 Z" />
    </clipPath>
  </defs>
  <path
     style="fill:currentColor;fill-opacity:1;stroke:none"
     d="M 8,2 A 3,3 0 0 0 5,5 3,3 0 0 0 8,8 3,3 0 0 0 11,5 3,3 0 0 0 8,2 Z M 9.2929688,3 10,3.7070312 6.7070312,7 6,6.2929688 Z M 8,9 A 5,4.5 0 0 0 3,13.5 5,4.5 0 0 0 3.0332031,14 H 12.962891 A 5,4.5 0 0 0 13,13.5 5,4.5 0 0 0 8,9 Z m 0,1 a 4,3.5 0 0 1 3.955078,3 H 4.0449219 A 4,3.5 0 0 1 8,10 Z"
     class="ColorScheme-Text"
     id="path263"
     clip-path="url(#clipPath797)"
     inkscape:path-effect="#path-effect801"
     inkscape:original-d="M 8 2 A 3 3 0 0 0 5 5 A 3 3 0 0 0 8 8 A 3 3 0 0 0 11 5 A 3 3 0 0 0 8 2 z M 9.2929688 3 L 10 3.7070312 L 6.7070312 7 L 6 6.2929688 L 9.2929688 3 z M 8 9 A 5 4.5 0 0 0 3 13.5 A 5 4.5 0 0 0 3.0332031 14 L 12.962891 14 A 5 4.5 0 0 0 13 13.5 A 5 4.5 0 0 0 8 9 z M 8 10 A 4 3.5 0 0 1 11.955078 13 L 4.0449219 13 A 4 3.5 0 0 1 8 10 z " />
</svg>
